X: 10
T:Praties are dug
R:Jig
C:Trad.
M:6/8
L:1/8
Q:3/8=120
K:D
|def edB|AFD E2D|FAA AFA|Bee edB|
def edB|AFD E2D|FAA AFA|Bdd d2g:|
|:fga agf|gab bag|fga agf|gfg e2g|
fga  agf|gab bag|fga efg|fdc d2z:|
